svg/design/pen_fill.svg

<?xml version="1.0" encoding="UTF-8"?>
<svg width="24px" height="24px" viewBox="0 0 24 24" version="1.1" xmlns="http://www.w3.org/2000/svg" xmlns:xlink="http://www.w3.org/1999/xlink">
    <title>pen_fill</title>
    <g id="页面-1" stroke="none" stroke-width="1" fill="none" fill-rule="evenodd">
        <g id="Design" transform="translate(-432.000000, -48.000000)" fill-rule="nonzero">
            <g id="pen_fill" transform="translate(432.000000, 48.000000)">
                 <path d="M24,0 L24,24 L0,24 L0,0 L24,0 Z M12.5934901,23.257841 L12.5819402,23.2595131 L12.5108777,23.2950439 L12.4918791,23.2987469 L12.4918791,23.2987469 L12.4767152,23.2950439 L12.4056548,23.2595131 C12.3958229,23.2563662 12.3870493,23.2590235 12.3821421,23.2649074 L12.3780323,23.275831 L12.360941,23.7031097 L12.3658947,23.7234994 L12.3769048,23.7357139 L12.4804777,23.8096931 L12.4953491,23.8136134 L12.4953491,23.8136134 L12.5071152,23.8096931 L12.6106902,23.7357139 L12.6232938,23.7196733 L12.6232938,23.7196733 L12.6266527,23.7031097 L12.609561,23.275831 C12.6075724,23.2657013 12.6010112,23.2592993 12.5934901,23.257841 L12.5934901,23.257841 Z M12.8583906,23.1452862 L12.8445485,23.1473072 L12.6598443,23.2396597 L12.6498822,23.2499052 L12.6498822,23.2499052 L12.6471943,23.2611114 L12.6650943,23.6906389 L12.6699349,23.7034178 L12.6699349,23.7034178 L12.678386,23.7104931 L12.8793402,23.8032389 C12.8914285,23.8068999 12.9022333,23.8029875 12.9078286,23.7952264 L12.9118235,23.7811639 L12.8776777,23.1665331 C12.8752882,23.1545897 12.8674102,23.1470016 12.8583906,23.1452862 L12.8583906,23.1452862 Z M12.1430473,23.1473072 C12.1332178,23.1423925 12.1221763,23.1452606 12.1156365,23.1525954 L12.1099173,23.1665331 L12.0757714,23.7811639 C12.0751323,23.7926639 12.0828099,23.8018602 12.0926481,23.8045676 L12.108256,23.8032389 L12.3092106,23.7104931 L12.3186497,23.7024347 L12.3186497,23.7024347 L12.3225043,23.6906389 L12.340401,23.2611114 L12.337245,23.2485176 L12.337245,23.2485176 L12.3277531,23.2396597 L12.1430473,23.1473072 Z" id="MingCute" fill-rule="nonzero"></path>
                <path d="M14.2946,4.98095 L19.0189,9.70528 C19.5846,10.271 19.7588,11.1194 19.4617,11.8623 L17.0966,17.7749 C16.8271,18.4488 16.2135,18.9244 15.4922,19.0159 L10.4131,19.6496 C10.2824919,19.6654312 10.1451508,19.6843551 10.0023556,19.7059433 L9.55888605,19.7782727 C9.48267362,19.791517 9.40541733,19.8053204 9.32727702,19.8196292 L8.60446156,19.9606125 L8.60446156,19.9606125 L8.10885154,20.0654843 L8.10885154,20.0654843 L7.3640181,20.232693 L7.3640181,20.232693 L6.40853965,20.4606309 L6.40853965,20.4606309 L4.85678358,20.8565455 L4.85678358,20.8565455 L4.21076,21.0306 L4.21076,21.0306 C3.89517,21.1178 3.50965,21.0533 3.2281,20.7718 C2.97784222,20.5214889 2.89909654,20.189084 2.94591641,19.8966505 L2.97978719,19.7509143 L2.97978719,19.7509143 L3.27519797,18.6388942 L3.27519797,18.6388942 L3.53925027,17.5913375 L3.53925027,17.5913375 L3.76719877,16.6358483 L3.76719877,16.6358483 L3.93441567,15.8910035 L3.93441567,15.8910035 L4.03929266,15.3953844 L4.03929266,15.3953844 L4.18028291,14.6725534 L4.18028291,14.6725534 L4.2596457,14.2155869 L4.2596457,14.2155869 L4.32430614,13.7875085 L4.32430614,13.7875085 L4.98401,8.5077 L4.98401,8.5077 C5.07548,7.78637 5.55111,7.17281 6.22501,6.90325 L12.1376,4.53821 C12.8804,4.24108 13.7289,4.41523 14.2946,4.98095 Z M10.5858,10.5854 C10.0531,11.1181 9.88371,11.8765 10.0776,12.5527 C10.0066,12.5947 9.93962,12.6462 9.87859,12.7072 L5.82046,16.7653 C5.79374,16.7921 5.77515,16.8258 5.76678,16.8626 L5.67805141,17.2478156 L5.67805141,17.2478156 L5.50049672,17.9909469 C5.471265,18.110675 5.4423375,18.227975 5.4139,18.3423 C5.37735,18.4893 5.51061,18.6225 5.65757,18.586 L6.375035,18.410925 L6.375035,18.410925 L7.13759,18.233 L7.13759,18.233 C7.17443,18.2246 7.20817,18.206 7.23489,18.1793 L11.2928,14.1214 C11.3539,14.0603 11.4055,13.9933 11.4474,13.9221 C12.1235,14.1158 12.8817,13.9464 13.4142,13.4138 C14.1953,12.6328 14.1953,11.3664 13.4142,10.5854 C12.6332,9.80434 11.3668,9.80434 10.5858,10.5854 Z M15.2427,3.10051 C15.6031615,2.74003 16.1704207,2.71230077 16.5626973,3.01732231 L16.6569,3.10051 L20.8995,7.34315 C21.29,7.73368 21.29,8.36684 20.8995,8.75736 C20.5390385,9.11784923 19.9717793,9.14557917 19.5795027,8.84054982 L19.4853,8.75736 L15.2427,4.51472 C14.8521,4.1242 14.8521,3.49103 15.2427,3.10051 Z" id="形状" fill="#09244B"></path>
            </g>
        </g>
    </g>
</svg>

<svg xmlns="http://www.w3.org/2000/svg" width="24" height="24"><g fill="none" fill-rule="nonzero"><path d="M24 0v24H0V0h24ZM12.593 23.258l-.011.002-.071.035-.02.004-.014-.004-.071-.035c-.01-.004-.019-.001-.024.005l-.004.01-.017.428.005.02.01.013.104.074.015.004.012-.004.104-.074.012-.016.004-.017-.017-.427c-.002-.01-.009-.017-.017-.018Zm.265-.113-.013.002-.185.093-.01.01-.003.011.018.43.005.012.008.007.201.093c.012.004.023 0 .029-.008l.004-.014-.034-.614c-.003-.012-.01-.02-.02-.022Zm-.715.002a.023.023 0 0 0-.027.006l-.006.014-.034.614c0 .012.007.02.017.024l.015-.002.201-.093.01-.008.004-.011.017-.43-.003-.012-.01-.01-.184-.092Z"/><path fill="#09244B" d="m14.295 4.98 4.724 4.725a2 2 0 0 1 .443 2.157l-2.365 5.913a1.999 1.999 0 0 1-1.605 1.24l-5.079.635c-.13.015-.268.034-.41.056l-.444.072-.232.042-.723.14-.495.105-.745.168-.955.228-1.552.396-.646.174a1.01 1.01 0 0 1-1.265-1.134l.034-.146.295-1.112.264-1.048.228-.955.167-.745.105-.496.141-.722.08-.457.064-.428.66-5.28a1.999 1.999 0 0 1 1.241-1.605l5.913-2.365a2 2 0 0 1 2.157.443Zm-3.71 5.605a2 2 0 0 0-.507 1.968 1.006 1.006 0 0 0-.2.154L5.82 16.765a.2.2 0 0 0-.053.098l-.089.385-.178.743-.086.351a.201.201 0 0 0 .244.244l.717-.175.763-.178a.2.2 0 0 0 .097-.054l4.058-4.058a.997.997 0 0 0 .154-.199 2 2 0 1 0-.861-3.337Zm4.658-7.484a1 1 0 0 1 1.32-.084l.094.084L20.9 7.343a1 1 0 0 1-1.32 1.498l-.095-.084-4.242-4.242a1 1 0 0 1 0-1.414Z"/></g></svg>
